dist/images/slides/compitences-2.svg

<svg width="100" height="101" viewBox="0 0 100 101" fill="none" xmlns="http://www.w3.org/2000/svg">
<path d="M49.1434 100.002C22.002 100.002 0 77.9978 0 50.8558C0 37.5112 5.31883 25.4078 13.9504 16.5526C14.063 16.4369 14.1758 16.3227 14.2897 16.2078L14.2922 16.211C5.66095 25.0662 0.341727 37.1687 0.341727 50.5133C0.341727 77.656 22.3438 99.6601 49.4851 99.6601C62.8292 99.6601 74.9321 94.3405 83.787 85.7082L83.7894 85.7104C83.6752 85.8246 83.5603 85.9371 83.4454 86.0497C74.5897 94.6832 62.4876 100.002 49.1434 100.002Z" fill="#969A9D"/>
<path d="M49.4871 99.6602C22.3459 99.6602 0.34375 77.6561 0.34375 50.5134C0.34375 37.1687 5.66298 25.0662 14.2942 16.211C14.4071 16.0953 14.52 15.9803 14.6334 15.8661L14.6363 15.8685C6.00502 24.7245 0.685798 36.8271 0.685798 50.1717C0.685798 77.3143 22.6879 99.3187 49.8295 99.3187C63.1737 99.3187 75.2758 93.999 84.1307 85.3656L84.1339 85.369C84.0189 85.4822 83.9048 85.5957 83.789 85.7083C74.9342 94.3405 62.8313 99.6602 49.4871 99.6602Z" fill="#96999C"/>
<path d="M49.8312 99.3186C22.6896 99.3186 0.6875 77.3142 0.6875 50.1716C0.6875 36.8269 6.00672 24.7244 14.638 15.8684C14.7509 15.7535 14.8637 15.6385 14.9773 15.5244L14.98 15.5267C6.34877 24.3819 1.02922 36.4853 1.02922 49.8299C1.02922 76.9718 23.0316 98.9759 50.1729 98.9759C63.517 98.9759 75.6191 93.6571 84.4748 85.024L84.4772 85.0262C84.3631 85.1407 84.2481 85.2529 84.1324 85.3654C75.2775 93.9989 63.1754 99.3186 49.8312 99.3186Z" fill="#96989A"/>
<path d="M50.171 98.9758C23.0298 98.9758 1.02734 76.9717 1.02734 49.8298C1.02734 36.4852 6.34689 24.3819 14.9782 15.5267C15.0907 15.4109 15.2036 15.2968 15.3174 15.1818L15.3199 15.185C6.68862 24.0402 1.36939 36.1427 1.36939 49.4874C1.36939 76.6299 23.3715 98.6344 50.5126 98.6344C63.8568 98.6344 75.9597 93.3147 84.8146 84.6822L84.817 84.6847C84.7028 84.7979 84.5879 84.9114 84.4729 85.0239C75.6173 93.6571 63.5152 98.9758 50.171 98.9758Z" fill="#95979A"/>
<path d="M50.5104 98.6348C23.3693 98.6348 1.36719 76.6303 1.36719 49.4877C1.36719 36.1431 6.68641 24.0406 15.3177 15.1854C15.4302 15.0696 15.5434 14.9547 15.6573 14.8405L15.6597 14.8429C13.5962 16.9607 11.7207 19.2645 10.063 21.7256C10.0614 21.728 10.0596 21.7312 10.0577 21.7336C10.0465 21.7503 10.0353 21.7671 10.0241 21.7838C10.0207 21.7894 10.0178 21.7926 10.0144 21.7982C10.0044 21.8134 9.99471 21.8277 9.98449 21.8429C9.98106 21.8477 9.97539 21.8565 9.97196 21.8613C9.96262 21.8756 9.95392 21.8884 9.94458 21.9028C9.93923 21.9108 9.93485 21.9172 9.9299 21.9251C9.92207 21.9363 9.91337 21.9491 9.90587 21.9611C9.899 21.9714 9.89309 21.9802 9.88623 21.9898C9.88 21.9994 9.87314 22.0098 9.86692 22.0193C9.85909 22.0313 9.85223 22.0417 9.84448 22.0529C9.8385 22.0624 9.83323 22.0704 9.82732 22.0792C9.81886 22.092 9.81016 22.1048 9.8017 22.1175C9.79771 22.1239 9.79299 22.1311 9.78892 22.1375C9.77863 22.1526 9.76961 22.1662 9.75963 22.1822C9.7562 22.187 9.75373 22.191 9.75029 22.1958C9.73936 22.2125 9.72754 22.2309 9.7166 22.2476C9.71477 22.25 9.71413 22.2508 9.71253 22.254C9.69976 22.2732 9.68763 22.2915 9.67486 22.3115C9.67454 22.3123 9.67422 22.3123 9.67358 22.3131C4.63598 30.0284 1.70899 39.2444 1.70899 49.1461C1.70899 65.105 9.31469 79.2861 21.0993 88.2645C29.3579 94.5564 39.6696 98.2921 50.8529 98.2921C56.2594 98.2921 61.4631 97.4189 66.3283 95.8065L66.3291 95.8055C66.3515 95.7984 66.3746 95.7906 66.397 95.7831C66.3986 95.7831 66.4002 95.7825 66.4018 95.7816C66.4225 95.7744 66.4417 95.7682 66.4624 95.7616C66.4672 95.76 66.4704 95.7585 66.4752 95.7569C66.4936 95.7513 66.5119 95.7451 66.5303 95.7386C66.5367 95.737 66.5415 95.7354 66.5471 95.7329C66.563 95.7273 66.5782 95.7226 66.595 95.717C66.6037 95.7139 66.6117 95.7114 66.6205 95.7083C66.6341 95.7033 66.6476 95.6987 66.6612 95.6946C66.6716 95.6908 66.682 95.6874 66.6923 95.6833C66.7035 95.6802 66.7155 95.6761 66.7267 95.6724C66.7394 95.6674 66.7522 95.6634 66.7658 95.6587C66.7746 95.6556 66.7825 95.6531 66.7913 95.65C66.8065 95.6453 66.8225 95.6397 66.8368 95.6341C66.844 95.6322 66.8512 95.629 66.8576 95.6275C66.8759 95.6213 66.8927 95.6148 66.911 95.6091C66.9134 95.6076 66.9166 95.6069 66.919 95.606C66.9398 95.5989 66.9613 95.5917 66.9821 95.5845C66.9837 95.5835 66.9853 95.5829 66.9869 95.5829C68.1571 95.1757 69.3098 94.7254 70.4377 94.2346C70.4337 94.2371 70.4289 94.2386 70.4249 94.2409C75.9327 91.847 80.9162 88.4737 85.1556 84.3407L85.1572 84.3433C85.0431 84.4564 84.9281 84.5694 84.8124 84.6826C75.9575 93.315 63.8546 98.6348 50.5104 98.6348Z" fill="#939699"/>
<path d="M50.8512 98.2915C56.2585 98.2915 61.4606 97.4184 66.3266 95.8059C61.4614 97.4184 56.2577 98.2915 50.8512 98.2915ZM66.4735 95.7564C66.4911 95.7508 66.511 95.7446 66.5286 95.738C66.5102 95.7446 66.4919 95.7508 66.4735 95.7564ZM66.5454 95.7323C66.5605 95.7277 66.5781 95.7212 66.5933 95.7165C66.5765 95.722 66.5613 95.7267 66.5454 95.7323ZM66.6906 95.6828C66.7026 95.679 66.713 95.6756 66.725 95.6718C66.7138 95.6756 66.7018 95.6797 66.6906 95.6828ZM66.8351 95.6335C66.8415 95.6316 66.8503 95.6285 66.8559 95.627C66.8495 95.6285 66.8423 95.6316 66.8351 95.6335ZM66.9804 95.5839C66.9836 95.5823 66.982 95.583 66.9852 95.5823C66.9836 95.5823 66.982 95.583 66.9804 95.5839ZM9.67188 22.3125C9.67251 22.3117 9.67283 22.3117 9.67315 22.3109L9.67188 22.3125ZM9.74859 22.1952C9.75202 22.1904 9.75449 22.1864 9.75792 22.1816C9.75545 22.1856 9.75106 22.192 9.74859 22.1952ZM9.82561 22.0786C9.83152 22.0699 9.83679 22.0619 9.84278 22.0523C9.83679 22.0619 9.83184 22.0699 9.82561 22.0786ZM9.86521 22.0188C9.87143 22.0092 9.87829 21.9988 9.88452 21.9892C9.87861 21.9988 9.87112 22.01 9.86521 22.0188ZM9.98279 21.8424C9.993 21.8272 10.0027 21.8128 10.0127 21.7977C10.0024 21.8128 9.993 21.8272 9.98279 21.8424ZM10.0613 21.725C11.719 19.2639 13.5945 16.9602 15.658 14.8424C15.7706 14.7274 15.8834 14.6124 15.9973 14.4983C13.799 16.7095 11.8093 19.1298 10.0613 21.725Z" fill="#939599"/>
<mask id="mask0_801_4691" style="mask-type:luminance" maskUnits="userSpaceOnUse" x="1" y="0" width="99" height="99">
<path d="M50.8548 98.2925C39.6715 98.2925 29.3599 94.5568 21.1013 88.2649C9.31664 79.2865 1.71094 65.1054 1.71094 49.1465C1.71094 39.2448 4.63792 30.0288 9.67553 22.3135L9.67681 22.3119C9.68958 22.2919 9.70171 22.2736 9.71448 22.2544C9.71608 22.2512 9.71671 22.2504 9.71855 22.248C9.72949 22.2313 9.74131 22.2129 9.75224 22.1962C9.75471 22.193 9.7591 22.1866 9.76158 22.1826C9.77155 22.1666 9.78057 22.1531 9.79087 22.1379C9.79494 22.1315 9.79965 22.1243 9.80365 22.1179C9.81211 22.1052 9.82081 22.0924 9.82927 22.0796C9.83549 22.0708 9.84045 22.0628 9.84643 22.0533C9.85418 22.0421 9.86104 22.0317 9.86886 22.0197C9.87477 22.011 9.88227 21.9998 9.88818 21.9902C9.89504 21.9806 9.90095 21.9718 9.90782 21.9615C9.91532 21.9495 9.92402 21.9367 9.93184 21.9255C9.93679 21.9176 9.94118 21.9112 9.94653 21.9032C9.95587 21.8888 9.96457 21.8761 9.97391 21.8617C9.97734 21.8569 9.98301 21.8481 9.98644 21.8433C9.99666 21.8282 10.0061 21.8138 10.0164 21.7986C10.0197 21.793 10.0226 21.7898 10.026 21.7842C10.0372 21.7675 10.0485 21.7507 10.0596 21.734C10.0616 21.7316 10.0634 21.7284 10.065 21.726C11.813 19.1308 13.8027 16.7105 16.0013 14.4993C17.3324 13.1598 18.739 11.8985 20.2164 10.7187C23.6684 9.0854 26.8985 7.06181 29.8524 4.70452C35.84 2.10616 42.4478 0.665276 49.3917 0.665276C76.5334 0.665276 98.5353 22.6695 98.5353 49.8122C98.5353 69.4233 87.051 86.3496 70.4396 94.235C69.3117 94.7258 68.1591 95.1761 66.9889 95.5833C66.9857 95.584 66.9873 95.5833 66.9841 95.5849C66.9633 95.5921 66.9417 95.5993 66.921 95.6064C66.9186 95.6073 66.9154 95.608 66.913 95.6095C66.8947 95.6152 66.8779 95.6217 66.8595 95.6279C66.854 95.6295 66.8452 95.6326 66.8388 95.6345C66.8244 95.6401 66.8084 95.6457 66.7933 95.6504C66.7845 95.6535 66.7765 95.656 66.7677 95.6592C66.7542 95.6638 66.7414 95.6679 66.7286 95.6728C66.7167 95.6766 66.7063 95.68 66.6943 95.6837C66.6839 95.6878 66.6735 95.6912 66.6632 95.695C66.6496 95.6991 66.636 95.7037 66.6225 95.7087C66.6137 95.7118 66.6057 95.7143 66.5969 95.7174C66.5817 95.7221 66.5642 95.7287 66.549 95.7333C66.5434 95.7358 66.5386 95.7374 66.5323 95.739C66.5147 95.7455 66.4947 95.7518 66.4772 95.7573C66.4724 95.7589 66.4692 95.7605 66.4644 95.7621C66.4436 95.7686 66.4245 95.7748 66.4037 95.782C66.4021 95.7829 66.4006 95.7835 66.399 95.7835C66.3766 95.791 66.3535 95.7989 66.3311 95.806L66.3303 95.8069C61.4642 97.4193 56.2621 98.2925 50.8548 98.2925ZM99.2034 58.0009C99.2042 58.0001 99.2042 57.9969 99.205 57.9953C99.2042 57.9969 99.2042 57.9993 99.2034 58.0009ZM99.2297 57.8548C99.2313 57.8484 99.2321 57.8412 99.2337 57.8348C99.2321 57.842 99.2313 57.8468 99.2297 57.8548ZM99.2425 57.7853C99.2441 57.7781 99.2449 57.771 99.2465 57.7638C99.2449 57.7702 99.2433 57.7789 99.2425 57.7853ZM99.2688 57.6337C99.2712 57.6233 99.2728 57.6129 99.2744 57.6025C99.2728 57.6137 99.2712 57.6225 99.2688 57.6337ZM99.2808 57.5666C99.2824 57.5546 99.2848 57.5451 99.2864 57.5339C99.2848 57.5443 99.2824 57.5554 99.2808 57.5666ZM99.2936 57.4908C99.2968 57.4732 99.3 57.4533 99.3032 57.4357C99.3 57.454 99.2968 57.4724 99.2936 57.4908ZM99.3175 57.3519C99.7654 54.6841 99.9992 51.9428 99.9992 49.1473C99.9992 35.8777 94.7388 23.8342 86.1913 14.9918C94.7388 23.8342 99.9992 35.8769 99.9992 49.1465C99.9992 51.9428 99.7661 54.6833 99.3175 57.3519ZM29.8548 4.70212C29.8572 4.70052 29.8572 4.70052 29.8596 4.69892C32.7715 3.32111 35.8416 2.22031 39.0345 1.43162C35.84 2.22111 32.7691 3.32191 29.8548 4.70212ZM39.076 1.42123C39.0832 1.41963 39.092 1.41725 39.1 1.41566C39.092 1.41725 39.084 1.41963 39.076 1.42123Z" fill="white"/>
</mask>
<g mask="url(#mask0_801_4691)">
<path d="M50.8548 98.2925C39.6715 98.2925 29.3599 94.5568 21.1013 88.2649C9.31664 79.2865 1.71094 65.1054 1.71094 49.1465C1.71094 39.2448 4.63792 30.0288 9.67553 22.3135L9.67681 22.3119C9.68958 22.2919 9.70171 22.2736 9.71448 22.2544C9.71608 22.2512 9.71671 22.2504 9.71855 22.248C9.72949 22.2313 9.74131 22.2129 9.75224 22.1962C9.75472 22.193 9.7591 22.1866 9.76158 22.1826C9.77155 22.1666 9.78057 22.153 9.79087 22.1379C9.79494 22.1315 9.79966 22.1243 9.80365 22.1179C9.81211 22.1052 9.82081 22.0924 9.82927 22.0796C9.83549 22.0708 9.84045 22.0628 9.84643 22.0533C9.85418 22.0421 9.86104 22.0317 9.86886 22.0197C9.87477 22.011 9.88227 21.9998 9.88818 21.9902C9.89504 21.9806 9.90095 21.9718 9.90782 21.9615C9.91532 21.9495 9.92402 21.9367 9.93184 21.9255C9.93679 21.9176 9.94118 21.9112 9.94653 21.9032C9.95587 21.8888 9.96457 21.8761 9.97391 21.8617C9.97734 21.8569 9.98301 21.8481 9.98644 21.8433C9.99666 21.8281 10.0061 21.8138 10.0164 21.7986C10.0197 21.793 10.0226 21.7898 10.026 21.7842C10.0372 21.7675 10.0485 21.7507 10.0596 21.734C10.0616 21.7316 10.0634 21.7284 10.065 21.726C11.813 19.1308 13.8027 16.7105 16.0013 14.4993C17.3324 13.1598 18.739 11.8985 20.2164 10.7187C23.6684 9.0854 26.8985 7.0618 29.8524 4.70452C35.84 2.10616 42.4478 0.665271 49.3917 0.665271C76.5334 0.665271 98.5353 22.6695 98.5353 49.8122C98.5353 69.4233 87.051 86.3496 70.4396 94.235C69.3117 94.7258 68.1591 95.1761 66.9889 95.5833C66.9857 95.584 66.9873 95.5833 66.9841 95.5849C66.9633 95.5921 66.9418 95.5993 66.921 95.6064C66.9186 95.6073 66.9154 95.608 66.913 95.6095C66.8947 95.6152 66.8779 95.6217 66.8595 95.6279C66.854 95.6295 66.8452 95.6326 66.8388 95.6345C66.8244 95.6401 66.8084 95.6457 66.7933 95.6504C66.7845 95.6535 66.7765 95.656 66.7677 95.6592C66.7542 95.6638 66.7414 95.6679 66.7286 95.6728C66.7167 95.6766 66.7063 95.68 66.6943 95.6837C66.6839 95.6878 66.6735 95.6912 66.6632 95.695C66.6496 95.6991 66.636 95.7037 66.6225 95.7087C66.6137 95.7118 66.6057 95.7143 66.5969 95.7174C66.5818 95.7221 66.5642 95.7287 66.549 95.7333C66.5434 95.7358 66.5386 95.7374 66.5323 95.739C66.5147 95.7455 66.4947 95.7518 66.4772 95.7573C66.4724 95.7589 66.4692 95.7605 66.4644 95.7621C66.4437 95.7686 66.4245 95.7748 66.4037 95.782C66.4021 95.7829 66.4006 95.7835 66.399 95.7835C66.3766 95.791 66.3535 95.7989 66.3311 95.806L66.3303 95.8069C61.4642 97.4193 56.2621 98.2925 50.8548 98.2925ZM99.2034 58.0009C99.2042 58.0001 99.2042 57.9969 99.205 57.9953C99.2042 57.9969 99.2042 57.9993 99.2034 58.0009ZM99.2297 57.8548C99.2313 57.8484 99.2321 57.8412 99.2337 57.8348C99.2321 57.842 99.2313 57.8468 99.2297 57.8548ZM99.2425 57.7853C99.2441 57.7781 99.2449 57.771 99.2465 57.7638C99.2449 57.7702 99.2433 57.7789 99.2425 57.7853ZM99.2688 57.6337C99.2712 57.6233 99.2728 57.6129 99.2744 57.6025C99.2728 57.6137 99.2712 57.6225 99.2688 57.6337ZM99.2808 57.5666C99.2824 57.5546 99.2848 57.5451 99.2864 57.5339C99.2848 57.5443 99.2824 57.5554 99.2808 57.5666ZM99.2936 57.4908C99.2968 57.4732 99.3 57.4532 99.3032 57.4357C99.3 57.454 99.2968 57.4724 99.2936 57.4908ZM99.3175 57.3519C99.7654 54.6841 99.9992 51.9428 99.9992 49.1473C99.9992 35.8777 94.7388 23.8342 86.1913 14.9918C94.7388 23.8342 99.9992 35.8769 99.9992 49.1465C99.9992 51.9428 99.7661 54.6833 99.3175 57.3519ZM29.8548 4.70212C29.8572 4.70052 29.8572 4.70052 29.8596 4.69892C32.7715 3.32111 35.8416 2.2203 39.0345 1.43161C35.84 2.2211 32.7691 3.32191 29.8548 4.70212ZM39.076 1.42123C39.0832 1.41963 39.092 1.41725 39.1 1.41565C39.092 1.41725 39.084 1.41963 39.076 1.42123Z" fill="url(#paint0_linear_801_4691)"/>
<path d="M49.9986 31.2182C49.2515 31.2182 48.6343 30.6082 48.6343 29.8533C48.6343 29.1055 49.2515 28.4955 49.9986 28.4955C50.7543 28.4955 51.3637 29.1055 51.3637 29.8533C51.3637 30.6082 50.7543 31.2182 49.9986 31.2182ZM65.7936 29.6808V27.8933C65.7936 27.4012 65.3915 27 64.9064 27H35.0987C34.6065 27 34.2053 27.4012 34.2053 27.8933V29.6808C33.4709 30.2829 33 31.204 33 32.2294V67.4422C33 69.2637 34.4822 70.7457 36.304 70.7457H61.9554V69.8801H58.3254V68.7652H36.304C35.5767 68.7652 34.9808 68.1694 34.9808 67.4422V32.7002L35.0987 32.7074H64.9064L65.0172 32.7002V61.5204H66.5485V65.4474H66.9988V32.2294C66.9988 31.204 66.5343 30.2829 65.7936 29.6808Z" fill="#202020"/>
<path d="M70.187 69.8801H66.5435V73.8143H61.9504V69.8801H58.3204V65.4474H61.9504V61.5204H66.5435V65.4474H70.187V69.8801ZM66.9938 56.6858C66.356 56.5268 65.6912 56.4223 65.0122 56.3812C64.7629 56.3598 64.5136 56.3535 64.2572 56.3535C61.0364 56.3535 58.1265 57.7042 56.0689 59.8651C55.5284 60.419 55.0512 61.0354 54.6492 61.6929C53.5619 63.425 52.9375 65.4752 52.9375 67.6638C52.9375 68.0381 52.9589 68.4052 52.9866 68.7652C53.0562 69.4441 53.1805 70.1088 53.3672 70.7457C54.7046 75.4973 59.0754 78.9812 64.2572 78.9812C70.5051 78.9812 75.5699 73.9116 75.5699 67.6638C75.5699 62.3584 71.9185 57.9115 66.9938 56.6858Z" fill="#202020"/>
<path d="M60.1363 38.0312H39.4555C38.9498 38.0312 38.5391 37.6206 38.5391 37.115C38.5391 36.6086 38.9498 36.1987 39.4555 36.1987H60.1363C60.642 36.1987 61.0519 36.6086 61.0519 37.115C61.0519 37.6206 60.642 38.0312 60.1363 38.0312Z" fill="#202020"/>
<path d="M58.0574 42.7644H41.5336C41.0279 42.7644 40.6172 42.3545 40.6172 41.8481C40.6172 41.3425 41.0279 40.9318 41.5336 40.9318H58.0574C58.5639 40.9318 58.9738 41.3425 58.9738 41.8481C58.9738 42.3545 58.5639 42.7644 58.0574 42.7644Z" fill="#202020"/>
<path d="M56.6891 47.498H42.9359C42.4295 47.498 42.0195 47.0874 42.0195 46.5818C42.0195 46.0754 42.4295 45.6655 42.9359 45.6655H56.6891C57.1948 45.6655 57.6055 46.0754 57.6055 46.5818C57.6055 47.0874 57.1948 47.498 56.6891 47.498Z" fill="#202020"/>
<path d="M58.7673 52.2301H40.8578C40.3513 52.2301 39.9414 51.8202 39.9414 51.3138C39.9414 50.8082 40.3513 50.3976 40.8578 50.3976H58.7673C59.2738 50.3976 59.6837 50.8082 59.6837 51.3138C59.6837 51.8202 59.2738 52.2301 58.7673 52.2301Z" fill="#202020"/>
<path d="M56.6891 56.9633H42.9359C42.4295 56.9633 42.0195 56.5526 42.0195 56.047C42.0195 55.5406 42.4295 55.1307 42.9359 55.1307H56.6891C57.1948 55.1307 57.6055 55.5406 57.6055 56.047C57.6055 56.5526 57.1948 56.9633 56.6891 56.9633Z" fill="#202020"/>
<path d="M58.7673 61.6959H40.8578C40.3513 61.6959 39.9414 61.286 39.9414 60.7796C39.9414 60.274 40.3513 59.8633 40.8578 59.8633H58.7673C59.2738 59.8633 59.6837 60.274 59.6837 60.7796C59.6837 61.286 59.2738 61.6959 58.7673 61.6959Z" fill="#202020"/>
</g>
<path d="M100.001 49.1465C100.001 69.3331 87.8314 86.6772 70.4282 94.2405C87.0459 86.3576 98.5366 69.4273 98.5366 49.8114C98.5366 22.6687 76.5347 0.664482 49.393 0.664482C42.4395 0.664482 35.8237 2.10934 29.8281 4.71489C36.2037 1.69025 43.3319 -0.000480652 50.8569 -0.000480652C77.9979 -0.000480652 100.001 22.0038 100.001 49.1465Z" fill="white"/>
<defs>
<linearGradient id="paint0_linear_801_4691" x1="-6.00243" y1="121.335" x2="85.609" y2="14.3986" gradientUnits="userSpaceOnUse">
<stop stop-color="white"/>
<stop offset="1" stop-color="#EFEFEF"/>
</linearGradient>
</defs>
</svg>

<svg width="100" height="101" fill="none" xmlns="http://www.w3.org/2000/svg"><path d="M49.143 100.002C22.002 100.002 0 77.998 0 50.856 0 37.51 5.319 25.408 13.95 16.553l.34-.345.002.003C5.661 25.066.342 37.169.342 50.513c0 27.143 22.002 49.147 49.143 49.147 13.344 0 25.447-5.32 34.302-13.952l.002.002c-.114.115-.229.227-.344.34-8.855 8.633-20.957 13.952-34.302 13.952z" fill="#969A9D"/><path d="M49.487 99.66C22.346 99.66.344 77.656.344 50.513c0-13.344 5.319-25.447 13.95-34.302l.34-.345.002.002C6.005 24.724.686 36.828.686 50.172c0 27.142 22.002 49.147 49.144 49.147 13.344 0 25.446-5.32 34.3-13.953l.004.003-.345.34C74.934 94.34 62.831 99.66 49.487 99.66z" fill="#96999C"/><path d="M49.831 99.319C22.69 99.319.687 77.314.687 50.172c0-13.345 5.32-25.448 13.951-34.304l.34-.344.002.003C6.349 24.382 1.03 36.485 1.03 49.83c0 27.142 22.002 49.146 49.143 49.146 13.344 0 25.446-5.319 34.302-13.952l.002.002c-.114.115-.229.227-.345.34-8.855 8.633-20.957 13.953-34.3 13.953z" fill="#96989A"/><path d="M50.171 98.976c-27.141 0-49.144-22.004-49.144-49.146 0-13.345 5.32-25.448 13.951-34.303l.34-.345.002.003C6.689 24.04 1.37 36.143 1.37 49.487c0 27.143 22.002 49.147 49.143 49.147 13.344 0 25.447-5.32 34.302-13.952l.002.003-.344.339c-8.856 8.633-20.958 13.952-34.302 13.952z" fill="#95979A"/><path d="M50.51 98.635c-27.14 0-49.143-22.005-49.143-49.147 0-13.345 5.32-25.447 13.95-34.303l.34-.345.003.003a49.46 49.46 0 00-5.597 6.883l-.005.008-.034.05-.01.014-.03.045-.012.018-.027.042-.015.022a.87.87 0 00-.044.065l-.02.03a1.44 1.44 0 01-.039.06l-.025.038-.013.02-.03.044-.009.014-.033.052-.004.006-.038.057-.001.002c-5.038 7.715-7.965 16.931-7.965 26.833 0 15.959 7.606 30.14 19.39 39.118a48.927 48.927 0 0029.754 10.028c5.406 0 10.61-.873 15.475-2.486h.001l.068-.023a2.383 2.383 0 01.065-.022l.013-.004a1.316 1.316 0 00.072-.024l.048-.016.026-.009a.72.72 0 01.04-.013l.031-.012.035-.01a.224.224 0 01.039-.014l.025-.009a.676.676 0 00.046-.016l.02-.007.054-.018.008-.003.063-.021a49.076 49.076 0 003.456-1.35l-.013.006a49.22 49.22 0 0014.73-9.9l.002.002-.345.34c-8.855 8.632-20.957 13.952-34.302 13.952z" fill="#939699"/><path d="M50.851 98.291zm15.623-2.535zm.071-.024a.386.386 0 00.048-.016l-.048.016zm.146-.05l.034-.01a.219.219 0 01-.034.01zm.144-.049a.095.095 0 00.02-.006l-.02.007zm.145-.05h.005a.01.01 0 00-.005 0zM9.672 22.314l.001-.002-.001.002zm.077-.118c.003-.005.005-.009.009-.013a.2.2 0 01-.01.013zm.077-.116a.774.774 0 00.017-.027l-.017.027zm.04-.06c.005-.01.012-.02.019-.03a.952.952 0 01-.02.03zm.117-.177l.03-.044-.03.044zm.078-.117z" fill="#939599"/><mask id="mask0_801_4691" style="mask-type:luminance" maskUnits="userSpaceOnUse" x="1" y="0" width="99" height="99"><path d="M50.855 98.293A48.927 48.927 0 0121.1 88.264C9.316 79.286 1.71 65.104 1.71 49.146c0-9.902 2.927-19.118 7.965-26.833v-.002l.038-.058.005-.006.033-.052a1.333 1.333 0 01.039-.058l.013-.02.025-.038.017-.027a1.41 1.41 0 00.042-.063 1.041 1.041 0 00.044-.064l.015-.023.027-.041.012-.019.03-.044.01-.015.034-.05.005-.008a49.365 49.365 0 0110.151-11.007 49.153 49.153 0 009.636-6.014 48.965 48.965 0 0119.54-4.04c27.141 0 49.143 22.005 49.143 49.147 0 19.611-11.484 36.538-28.095 44.423a49.24 49.24 0 01-3.451 1.348l-.005.002-.063.021-.008.004c-.018.005-.035.012-.053.018l-.021.007a.717.717 0 01-.046.015l-.025.01-.04.013-.034.01-.03.012a.695.695 0 00-.041.014l-.026.008-.048.016a1.225 1.225 0 01-.072.024l-.013.005a2.045 2.045 0 00-.065.022l-.068.022a49.113 49.113 0 01-15.476 2.487zM99.203 58l.002-.006c0 .002 0 .004-.002.006zm.027-.146l.004-.02-.004.02zm.013-.07l.004-.021a.203.203 0 00-.004.021zm.026-.151zm.012-.067l.005-.033-.005.033zm.013-.076l.01-.055-.01.055zm.023-.14c.448-2.667.682-5.408.682-8.204 0-13.27-5.26-25.313-13.808-34.155C94.74 23.834 100 35.877 100 49.146c0 2.797-.233 5.537-.681 8.206zM29.855 4.703l.005-.003a48.82 48.82 0 01-.005.003zm9.221-3.28l.024-.006-.024.005z" fill="#fff"/></mask><g mask="url(#mask0_801_4691)"><path d="M50.855 98.293A48.927 48.927 0 0121.1 88.264C9.316 79.286 1.71 65.104 1.71 49.146c0-9.902 2.927-19.118 7.965-26.833v-.002l.038-.058.005-.006.033-.052a1.238 1.238 0 01.039-.058l.013-.02.025-.038.017-.027a1.41 1.41 0 00.042-.063 1.041 1.041 0 00.044-.064l.015-.023.027-.041.012-.019.03-.044.01-.015.034-.05.005-.008a49.365 49.365 0 0110.151-11.007 49.153 49.153 0 009.636-6.014 48.965 48.965 0 0119.54-4.04c27.141 0 49.143 22.005 49.143 49.147 0 19.611-11.484 36.538-28.095 44.423a49.24 49.24 0 01-3.451 1.348l-.005.002-.063.021-.008.004c-.018.005-.035.012-.053.018l-.021.007a.717.717 0 01-.046.015l-.025.01-.04.013-.034.01-.03.012a.695.695 0 00-.041.014l-.026.008-.048.016a1.225 1.225 0 01-.072.024l-.013.005a2.145 2.145 0 00-.065.022l-.068.022a49.113 49.113 0 01-15.476 2.487zM99.203 58l.002-.006c0 .002 0 .004-.002.006zm.027-.146l.004-.02-.004.02zm.013-.07l.004-.021a.203.203 0 00-.004.021zm.026-.151zm.012-.067l.005-.033-.005.033zm.013-.076l.01-.055-.01.055zm.023-.14c.448-2.667.682-5.408.682-8.204 0-13.27-5.26-25.313-13.808-34.155C94.74 23.834 100 35.877 100 49.146c0 2.797-.233 5.537-.681 8.206zM29.855 4.703l.005-.003a48.82 48.82 0 01-.005.003zm9.221-3.28l.024-.006-.024.005z" fill="url(#paint0_linear_801_4691)"/><path d="M49.999 31.218c-.748 0-1.365-.61-1.365-1.365 0-.748.617-1.358 1.365-1.358a1.362 1.362 0 110 2.723zm15.795-1.537v-1.788a.894.894 0 00-.888-.893H35.1a.895.895 0 00-.894.893v1.788A3.293 3.293 0 0033 32.229v35.213a3.308 3.308 0 003.304 3.304h25.651v-.866h-3.63v-1.115H36.304a1.328 1.328 0 01-1.323-1.323V32.7l.118.007h29.807l.111-.007v28.82h1.532v3.927h.45V32.23a3.273 3.273 0 00-1.205-2.548z" fill="#202020"/><path d="M70.187 69.88h-3.644v3.934H61.95V69.88h-3.63v-4.433h3.63V61.52h4.593v3.927h3.644v4.433zm-3.193-13.194a10.934 10.934 0 00-1.982-.305 11.28 11.28 0 00-8.943 3.484 10.37 10.37 0 00-1.42 1.828 11.2 11.2 0 00-1.712 5.97c0 .375.022.742.05 1.102.07.68.194 1.344.38 1.98 1.338 4.752 5.708 8.236 10.89 8.236 6.248 0 11.313-5.07 11.313-11.317 0-5.306-3.651-9.753-8.576-10.978zm-6.858-18.655h-20.68a.917.917 0 010-1.832h20.68a.916.916 0 010 1.832zm-2.079 4.733H41.534a.916.916 0 110-1.832h16.523a.916.916 0 110 1.832zm-1.367 4.734H42.935a.916.916 0 110-1.832h13.753a.916.916 0 110 1.832zm2.077 4.732h-17.91a.916.916 0 110-1.832h17.91a.916.916 0 110 1.832zm-2.077 4.733H42.935a.916.916 0 010-1.832h13.753a.916.916 0 110 1.832z" fill="#202020"/><path d="M58.767 61.696h-17.91a.916.916 0 110-1.833h17.91a.916.916 0 110 1.833z" fill="#202020"/></g><path d="M100.001 49.147c0 20.186-12.17 37.53-29.573 45.093 16.618-7.882 28.109-24.813 28.109-44.429C98.537 22.67 76.535.664 49.393.664a48.967 48.967 0 00-19.565 4.05A48.925 48.925 0 0150.857 0C77.997 0 100 22.004 100 49.147z" fill="#fff"/><defs><linearGradient id="paint0_linear_801_4691" x1="-6.002" y1="121.335" x2="85.609" y2="14.399" gradientUnits="userSpaceOnUse"><stop stop-color="#fff"/><stop offset="1" stop-color="#EFEFEF"/></linearGradient></defs></svg>
